assets/illustrations/multisize/40/pptx.svg

<svg id="133342d1-3368-4c9a-93dd-dbc47f8eb37d" data-name="ICONS" xmlns="http://www.w3.org/2000/svg" xmlns:xlink="http://www.w3.org/1999/xlink" viewBox="0 0 40 40"><defs><linearGradient id="acf57ccb-89eb-432d-924d-5d28c8fad310" x1="6.09939" y1="4.4339" x2="35.39486" y2="39.34688" gradientUnits="userSpaceOnUse"><stop offset="0" stop-color="#fff" stop-opacity="0"/><stop offset="0.86247" stop-color="#5e5e5e" stop-opacity="0.06315"/><stop offset="1" stop-opacity="0.1"/></linearGradient><linearGradient id="f690710f-1210-46a3-aa01-5f1859b32c2e" x1="32" y1="13.90625" x2="32" y2="11.08751" gradientUnits="userSpaceOnUse"><stop offset="0" stop-color="#828282" stop-opacity="0"/><stop offset="0.86247" stop-color="#303030" stop-opacity="0.06315"/><stop offset="1" stop-opacity="0.1"/></linearGradient><linearGradient id="66a03c7b-66c3-4eda-9542-f130f875beee" x1="26.79167" y1="9.70833" x2="31.72991" y2="4.77009" gradientUnits="userSpaceOnUse"><stop offset="0" stop-color="#fff" stop-opacity="0"/><stop offset="0.44604" stop-color="#fff" stop-opacity="0.00799"/><stop offset="0.63551" stop-color="#fff" stop-opacity="0.03616"/><stop offset="0.77636" stop-color="#fff" stop-opacity="0.08493"/><stop offset="0.8924" stop-color="#fff" stop-opacity="0.15385"/><stop offset="0.99328" stop-color="#fff" stop-opacity="0.24291"/><stop offset="1" stop-color="#fff" stop-opacity="0.25"/></linearGradient><linearGradient id="130d0c80-3494-48c5-90f0-3de089ac96cf" x1="14.27844" y1="36.94138" x2="14.65697" y2="33.3769" gradientUnits="userSpaceOnUse"><stop offset="0" stop-color="#828282" stop-opacity="0"/><stop offset="0.99719" stop-opacity="0.2"/></linearGradient><linearGradient id="e9e8b7a1-5411-42f8-b995-bdeca6e3545f" x1="11.5" y1="32.79198" x2="11.5" y2="12.21733" gradientUnits="userSpaceOnUse"><stop offset="0" stop-color="#fff" stop-opacity="0"/><stop offset="0.52587" stop-color="#fff" stop-opacity="0.00735"/><stop offset="0.71529" stop-color="#fff" stop-opacity="0.03396"/><stop offset="0.8503" stop-color="#fff" stop-opacity="0.0803"/><stop offset="0.95875" stop-color="#fff" stop-opacity="0.14595"/><stop offset="1" stop-color="#fff" stop-opacity="0.18"/></linearGradient></defs><title>FileTypeIcons_Master_All_NEW</title><polygon points="10 3 29 3 36 10 36 37 10 37 10 3" fill="#fff"/><path d="M24,8a7,7,0,0,1,7,7H24Z" fill="#f5ba9d"/><path d="M29,2H9V38H37V10Zm0,1.5L35.5,10H29ZM36,37H10V3H28v8h8Z" fill="#949494"/><path d="M31,16a8,8,0,1,1-8-8v8Z" fill="#c8c8c8"/><rect x="20" y="32" width="13" height="1" fill="#c8c8c8"/><rect x="20" y="29" width="13" height="1" fill="#c8c8c8"/><rect x="20" y="26" width="13" height="1" fill="#c8c8c8"/><polygon points="3 13 20 11 20 34 3 32 3 13" fill="#b7472a"/><path d="M10.15744,23.89958V27H8V18h3.37977Q14.99989,18,15,20.8682a2.68365,2.68365,0,0,1-1.03865,2.19352,4.29054,4.29054,0,0,1-2.77528.83786Zm0-4.34309v2.80543h.84829q1.72327,0,1.72328-1.41841,0-1.38692-1.72328-1.387Z" fill="#fff"/><path d="M29,2H9V12.29419L3,13V32l6,.70581V38H37V10Z" fill="url(#acf57ccb-89eb-432d-924d-5d28c8fad310)"/><rect x="28" y="11" width="8" height="3" fill="url(#f690710f-1210-46a3-aa01-5f1859b32c2e)"/><polygon points="29 2 9 2 9 3 28 3 28 11 36 11 36 25 37 25 37 10 29 2" fill="url(#66a03c7b-66c3-4eda-9542-f130f875beee)"/><polygon points="20 37 9 37 9 32.71 20 34 20 37" fill="url(#130d0c80-3494-48c5-90f0-3de089ac96cf)"/><polygon points="20 34 3 32 3 13 20 11 20 34" fill="url(#e9e8b7a1-5411-42f8-b995-bdeca6e3545f)"/></svg>

<?xml version="1.0" encoding="utf-8"?>
<!-- Generator: Adobe Illustrator 21.1.0, SVG Export Plug-In . SVG Version: 6.00 Build 0)  -->
<svg version="1.1" xmlns="http://www.w3.org/2000/svg" xmlns:xlink="http://www.w3.org/1999/xlink" x="0px" y="0px"
	 viewBox="0 0 40 40" enable-background="new 0 0 40 40" xml:space="preserve">
<g id="TEMPLATE" display="none">
	<g display="inline">
		<path fill="#D0D0D0" d="M40,0v40H0V0H40 M41-1h-1H0h-1v1v40v1h1h40h1v-1V0V-1L41-1z"/>
	</g>
	<g display="inline" opacity="0.1">
		<path fill="#FF3A6D" d="M38,2v36H2V2H38 M40,0H0v40h40V0L40,0z"/>
	</g>
</g>
<g id="ICONS">
	<polygon fill="#FFFFFF" points="10,3 29,3 36,10 36,37 10,37 	"/>
	<path fill="#F5BA9D" d="M24,8c3.866,0,7,3.134,7,7h-7V8z"/>
	<path fill="#949494" d="M29,2H9v36h28V10L29,2z M29,3.5l6.5,6.5H29V3.5z M36,37H10V3h18v8h8V37z"/>
	<path fill="#C8C8C8" d="M31,16c0,4.4183-3.5817,8-8,8s-8-3.5817-8-8s3.5817-8,8-8v8H31z"/>
	<rect x="20" y="32" fill="#C8C8C8" width="13" height="1"/>
	<rect x="20" y="29" fill="#C8C8C8" width="13" height="1"/>
	<rect x="20" y="26" fill="#C8C8C8" width="13" height="1"/>
	<polygon fill="#B7472A" points="3,13 20,11 20,34 3,32 	"/>
	<g>
		<path fill="#FFFFFF" d="M10.1574,23.8996V27H8v-9h3.3798C13.7932,18,15,18.9562,15,20.8682c0,0.9038-0.3464,1.6349-1.0386,2.1935
			c-0.6925,0.5586-1.6176,0.8379-2.7753,0.8379H10.1574z M10.1574,19.5565v2.8054h0.8483c1.1489,0,1.7233-0.4727,1.7233-1.4184
			c0-0.9246-0.5744-1.387-1.7233-1.387H10.1574z"/>
	</g>
	<linearGradient id="SVGID_1_" gradientUnits="userSpaceOnUse" x1="6.0994" y1="4.4339" x2="35.3949" y2="39.3469">
		<stop  offset="0" style="stop-color:#FFFFFF;stop-opacity:0"/>
		<stop  offset="0.2264" style="stop-color:#FCFCFC;stop-opacity:0.0226"/>
		<stop  offset="0.3626" style="stop-color:#F4F4F4;stop-opacity:0.0363"/>
		<stop  offset="0.475" style="stop-color:#E6E6E6;stop-opacity:0.0475"/>
		<stop  offset="0.5744" style="stop-color:#D1D1D1;stop-opacity:0.0574"/>
		<stop  offset="0.6652" style="stop-color:#B7B7B7;stop-opacity:0.0665"/>
		<stop  offset="0.7498" style="stop-color:#979797;stop-opacity:0.075"/>
		<stop  offset="0.8297" style="stop-color:#707070;stop-opacity:0.083"/>
		<stop  offset="0.9057" style="stop-color:#444444;stop-opacity:0.0906"/>
		<stop  offset="0.9761" style="stop-color:#121212;stop-opacity:0.0976"/>
		<stop  offset="1" style="stop-color:#000000;stop-opacity:0.1"/>
	</linearGradient>
	<path fill="url(#SVGID_1_)" d="M29,2H9v10.2942L3,13v19l6,0.7058V38h28V10L29,2z"/>
	<linearGradient id="SVGID_2_" gradientUnits="userSpaceOnUse" x1="32" y1="13.9063" x2="32" y2="11.0875">
		<stop  offset="0" style="stop-color:#828282;stop-opacity:0"/>
		<stop  offset="0.2812" style="stop-color:#7F7F7F;stop-opacity:0.0281"/>
		<stop  offset="0.4503" style="stop-color:#777777;stop-opacity:0.045"/>
		<stop  offset="0.5899" style="stop-color:#696969;stop-opacity:0.059"/>
		<stop  offset="0.7133" style="stop-color:#545454;stop-opacity:0.0713"/>
		<stop  offset="0.8259" style="stop-color:#3A3A3A;stop-opacity:0.0826"/>
		<stop  offset="0.9294" style="stop-color:#1A1A1A;stop-opacity:0.0929"/>
		<stop  offset="1" style="stop-color:#000000;stop-opacity:0.1"/>
	</linearGradient>
	<rect x="28" y="11" fill="url(#SVGID_2_)" width="8" height="3"/>
	<linearGradient id="SVGID_3_" gradientUnits="userSpaceOnUse" x1="26.7917" y1="9.7083" x2="31.7299" y2="4.7701">
		<stop  offset="0" style="stop-color:#FFFFFF;stop-opacity:0"/>
		<stop  offset="0.8537" style="stop-color:#FFFFFF;stop-opacity:0.2134"/>
		<stop  offset="1" style="stop-color:#FFFFFF;stop-opacity:0.25"/>
	</linearGradient>
	<polygon fill="url(#SVGID_3_)" points="29,2 9,2 9,3 28,3 28,11 35.9999,10.9999 36,25 37,25 37,10 	"/>
	<linearGradient id="SVGID_4_" gradientUnits="userSpaceOnUse" x1="14.2784" y1="36.9414" x2="14.657" y2="33.3769">
		<stop  offset="0" style="stop-color:#828282;stop-opacity:0"/>
		<stop  offset="0.1699" style="stop-color:#7E7E7E;stop-opacity:0.0341"/>
		<stop  offset="0.346" style="stop-color:#717171;stop-opacity:0.0694"/>
		<stop  offset="0.5248" style="stop-color:#5D5D5D;stop-opacity:0.1053"/>
		<stop  offset="0.7057" style="stop-color:#404040;stop-opacity:0.1415"/>
		<stop  offset="0.8863" style="stop-color:#1B1B1B;stop-opacity:0.1778"/>
		<stop  offset="0.9972" style="stop-color:#000000;stop-opacity:0.2"/>
	</linearGradient>
	<polygon fill="url(#SVGID_4_)" points="20,37 9,37 9,32.71 20,34 	"/>
	<linearGradient id="SVGID_5_" gradientUnits="userSpaceOnUse" x1="11.5" y1="32.792" x2="11.5" y2="12.2173">
		<stop  offset="0" style="stop-color:#FFFFFF;stop-opacity:0"/>
		<stop  offset="0.8587" style="stop-color:#FFFFFF;stop-opacity:0.1546"/>
		<stop  offset="1" style="stop-color:#FFFFFF;stop-opacity:0.18"/>
	</linearGradient>
	<polygon fill="url(#SVGID_5_)" points="20,34 3,32 3,13 20,11 	"/>
</g>
</svg>
